outputs/icons/content/add_round.svg

<svg xmlns="http://www.w3.org/2000/svg" width="1200" height="1200" fill="none"><g clip-path="url(#a)"><path fill="#000" d="M900 650H650v250c0 27.5-22.5 50-50 50s-50-22.5-50-50V650H300c-27.5 0-50-22.5-50-50s22.5-50 50-50h250V300c0-27.5 22.5-50 50-50s50 22.5 50 50v250h250c27.5 0 50 22.5 50 50s-22.5 50-50 50"/></g><defs><clipPath id="a"><path fill="#fff" d="M0 0h1200v1200H0z"/></clipPath></defs></svg>

<svg width="1200" height="1200" viewBox="0 0 1200 1200" fill="none" xmlns="http://www.w3.org/2000/svg"><g clip-path="url(#clip0_225_3326)"><path d="M900 650H650V900C650 927.5 627.5 950 600 950C572.5 950 550 927.5 550 900V650H300C272.5 650 250 627.5 250 600C250 572.5 272.5 550 300 550H550V300C550 272.5 572.5 250 600 250C627.5 250 650 272.5 650 300V550H900C927.5 550 950 572.5 950 600C950 627.5 927.5 650 900 650Z" fill="black"/></g><defs><clipPath id="clip0_225_3326"><path width="24" fill="white" d="M0 0H1200V1200H0V0z"/></clipPath></defs></svg>
